assets/01_base/Base_19.svg

<svg xmlns="http://www.w3.org/2000/svg" width="500" height="500" fill="none" viewBox="0 0 500 500"><g clip-path="url(#Base_19_svg_clip0_70_208)"><g clip-path="url(#Base_19_svg_clip1_70_208)"><path fill="#f4a6c8" d="M450.75 251.962C450.75 362.99 360.645 453 249.5 453c-50.506 0-96.675-18.582-132.011-49.286-42.416-36.859-69.239-91.177-69.239-151.738 0-111.042 90.105-201.052 201.25-201.052s201.25 90.01 201.25 201.038"/><path fill="#ff71ee" d="M387.161 377.795c29.151 0 52.783-8.895 52.783-19.866s-23.632-19.866-52.783-19.866c-29.152 0-52.784 8.894-52.784 19.866s23.632 19.866 52.784 19.866"/><path fill="#ff71ee" d="M111.838 377.795c29.152 0 52.784-8.895 52.784-19.866s-23.632-19.866-52.784-19.866-52.783 8.894-52.783 19.866 23.632 19.866 52.783 19.866"/><path fill="#ffcf4b" d="M165.207 47c0 46.5 37.744 84.205 84.293 84.205S333.794 93.5 333.794 47z"/><path fill="#ffcf4b" d="M370.399 89.095c-29.772 35.75-24.895 88.843 10.892 118.584S470.228 232.548 500 196.798z"/><path fill="#ffcf4b" d="M128.601 89.095c29.772 35.75 24.895 88.843-10.892 118.584S28.772 232.548-1 196.798z"/></g></g><defs><clipPath id="Base_19_svg_clip0_70_208"><rect width="500" height="500" fill="#fff"/></clipPath><clipPath id="Base_19_svg_clip1_70_208"><rect width="501" height="406" fill="#fff" transform="translate(-1 47)"/></clipPath></defs></svg>

<svg width="500" height="500" viewBox="0 0 500 500" fill="none" xmlns="http://www.w3.org/2000/svg">
<g clip-path="url(#clip0_70_208)">
<g clip-path="url(#clip1_70_208)">
<path d="M450.75 251.962C450.75 362.99 360.645 453 249.5 453C198.994 453 152.825 434.418 117.489 403.714C75.0726 366.855 48.25 312.537 48.25 251.976C48.25 140.934 138.355 50.9236 249.5 50.9236C360.645 50.9236 450.75 140.934 450.75 251.962Z" fill="#F4A6C8"/>
<path d="M387.161 377.795C416.312 377.795 439.944 368.9 439.944 357.929C439.944 346.957 416.312 338.063 387.161 338.063C358.009 338.063 334.377 346.957 334.377 357.929C334.377 368.9 358.009 377.795 387.161 377.795Z" fill="#FF71EE"/>
<path d="M111.838 377.795C140.99 377.795 164.622 368.9 164.622 357.929C164.622 346.957 140.99 338.063 111.838 338.063C82.6868 338.063 59.0547 346.957 59.0547 357.929C59.0547 368.9 82.6868 377.795 111.838 377.795Z" fill="#FF71EE"/>
<path d="M165.207 47C165.207 93.5 202.951 131.205 249.5 131.205C296.049 131.205 333.794 93.5 333.794 47H165.207Z" fill="#FFCF4B"/>
<path d="M370.399 89.095C340.627 124.845 345.504 177.938 381.291 207.679C417.079 237.42 470.228 232.548 500 196.798L370.399 89.095Z" fill="#FFCF4B"/>
<path d="M128.601 89.095C158.373 124.845 153.496 177.938 117.709 207.679C81.9208 237.42 28.7721 232.548 -1 196.798L128.601 89.095Z" fill="#FFCF4B"/>
</g>
</g>
<defs>
<clipPath id="clip0_70_208">
<rect width="500" height="500" fill="white"/>
</clipPath>
<clipPath id="clip1_70_208">
<rect width="501" height="406" fill="white" transform="translate(-1 47)"/>
</clipPath>
</defs>
</svg>
